svg/300/outlined/shuffle_on-fill.svg

<svg xmlns="http://www.w3.org/2000/svg" width="48" height="48" viewBox="0 -960 960 960"><path d="M105.385-60.002q-18.057 0-31.72-13.663Q60-87.328 60-105.385V-855.23q0-17.442 13.664-31.413 13.663-13.971 31.72-13.971H855.23q17.442 0 31.413 13.971t13.971 31.413v749.845q0 18.057-13.971 31.72Q872.672-60 855.23-60H105.385Zm471-119.999h203.614v-201.845h-45.384v124.077L565.539-425.615 533.924-393l168.23 167.615H576.385v45.384Zm-364.384 0L734.615-702v123.846h45.384v-201.845H576.385v45.384h126.231L180.001-212.616l32 32.615Zm179.537-356.846 32.615-32.23-211.922-210.922-32.23 32.23 211.537 210.922Z"/></svg>

<svg xmlns="http://www.w3.org/2000/svg" width="48" height="48" viewBox="0 -960 960 960"><path d="M105.39-60q-18.06 0-31.73-13.66Q60-87.33 60-105.39v-749.84q0-17.44 13.66-31.41 13.67-13.97 31.73-13.97h749.84q17.44 0 31.41 13.97 13.97 13.97 13.97 31.41v749.84q0 18.06-13.97 31.73Q872.67-60 855.23-60H105.39Zm470.99-120H780v-201.85h-45.39v124.08L565.54-425.61 533.92-393l168.23 167.61H576.38V-180ZM212-180l522.61-522v123.85H780V-780H576.38v45.39h126.24L180-212.62 212-180Zm179.54-356.85 32.61-32.23L212.23-780 180-747.77l211.54 210.92Z"/></svg>
